symbols/web/emoji_transportation/materialsymbolssharp/emoji_transportation_wght500fill1_48px.svg

<svg xmlns="http://www.w3.org/2000/svg" height="48" width="48"><path d="M20.4 44.4V31.65l3.25-9.5H41.1l3.2 9.5V44.4h-3.7V41H24.1v3.4Zm2.95-14.2H41.4l-1.9-5.75H25.25Zm2.7 7.3q.8 0 1.375-.575T28 35.55q0-.85-.575-1.4-.575-.55-1.375-.55-.85 0-1.4.55-.55.55-.55 1.4 0 .8.55 1.375t1.4.575Zm12.65 0q.8 0 1.375-.575t.575-1.375q0-.85-.575-1.4-.575-.55-1.375-.55-.85 0-1.4.55-.55.55-.55 1.4 0 .8.55 1.375t1.4.575Zm-26.75-8.7V25h3.8v3.8ZM22.3 15.85v-3.8h3.8v3.8ZM11.95 36.5v-3.8h3.8v3.8Zm0 7.7v-3.8h3.8v3.8Zm-8.25 0V16.75h10.35V3.8H34.4v13.4h-3.45v-10h-13.5v12.95H7.1V44.2Z"/></svg>

<svg xmlns="http://www.w3.org/2000/svg" height="48" width="48"><path d="M20.4 44.4V31.65L23.65 22.15H41.1L44.3 31.65V44.4H40.6V41H24.1V44.4ZM23.35 30.2H41.4L39.5 24.45H25.25ZM26.05 37.5Q26.85 37.5 27.425 36.925Q28 36.35 28 35.55Q28 34.7 27.425 34.15Q26.85 33.6 26.05 33.6Q25.2 33.6 24.65 34.15Q24.1 34.7 24.1 35.55Q24.1 36.35 24.65 36.925Q25.2 37.5 26.05 37.5ZM38.7 37.5Q39.5 37.5 40.075 36.925Q40.65 36.35 40.65 35.55Q40.65 34.7 40.075 34.15Q39.5 33.6 38.7 33.6Q37.85 33.6 37.3 34.15Q36.75 34.7 36.75 35.55Q36.75 36.35 37.3 36.925Q37.85 37.5 38.7 37.5ZM11.95 28.8V25H15.75V28.8ZM22.3 15.85V12.05H26.1V15.85ZM11.95 36.5V32.7H15.75V36.5ZM11.95 44.2V40.4H15.75V44.2ZM3.7 44.2V16.75H14.05V3.8H34.4V17.2H30.95V7.2H17.45V20.15H7.1V44.2Z"/></svg>
